X:1
T:Precatus est Moyses
T:Precatus est Moyses
T:Orlando di Lasso
C:Orlando di Lasso
%%score [ 1 2 3 4 ]
L:1/8
Q:1/4=120
M:2/2
K:Bb
V:1 treble nm="Soprano" snm="S"
V:2 treble nm="Alto" snm="A"
V:3 treble-8 nm="Tenor" snm="T"
V:4 bass nm="Bass" snm="B"
V:1
 z4 G4- | G2 B3 A/G/AB | c2 c2 =B4 | c3 c c2 d2 | d2 e4 d2 | d2 B2 G2 A2 | c2 B3 A G2- | %7
w: Pre-|* ca- * * * *|* tus est|Mo- y- ses in|con- spe- ctu|Do- mi- ni De-|i su- * *|
 G^F/=E/ F2 G2 G2 | e4 c4 | z2 F2 f4 | =e8 || z4 f4- | f4 B2 c2- | cB/A/ B2 G2 C2 | z2 c2 B2 _A2 | %15
w: * * * * i, et|di- xit,|et di-|xit:|'Qua-|* re, Do-|* * * * mi- ne,|i- ra- sce-|
 G2 G2 G2 A2 | B6 (c2 | c)B/A/ B2 c4 | z2 c4 =BA | =B2 B2 c4 | d4 G2 G2 | _A2 (G3 F/E/ F2) | %22
w: ris in po- pu-|lo tu-|* * * * o?|Par- * *|* ce i-|rae a- ni-|mae tu- * * *|
 G4 z2 G2 | G4 c4 | d3 d c2 F2 | B2 GA BAde | f2 B2 AB A2 | G4 z4 | z2 c2 c2 =B2 | c2 _A2 G4- | %30
w: ae: me-|men- to|A- bra- ham, I-|sa- ac _ _ _ _ _|_ et Ia- * *|cob,|qui- bus iu-|ra- sti da-|
 G4 G2 e2- | ed/c/ d2 e2 B2 | B4 c4- | c2 c4 c2- | c2 BA B4 | A8 | =B8 c4 | d8 e4 | c8 c4 | %39
w: * re ter-|* * * * ram flu-|en- tem|_ lac et|_ _ _ _|mel.'|Et pla-|ca- tus|fa- ctus|
 B4 B4 _A4 | G4 B4 | c2 d2 B2 c2- | cd e2 B2 B2 | c2 d4 c2 | B8 | A4 G4 | G3 A B2 c2- | %47
w: est Do- mi-|nus de|ma- li- gni- ta-|* * * te, de|ma- li- gni-|ta-|te, quam|di- * * xit|
 c=B/A/ B2 c2 d2 | edcB AB c2 | d3 c/d/ c2 B2 | A2 G3 ^F/=E/ F2 | G8 |] %52
w: _ _ _ _ fa- ce-|re _ _ _ _ _ _|po- * * * pu-|lo su- * * *|o.|
V:2
 z4 D4- | D4 F4 | G4 G2 G2- | GG G2 A2 B2 | B4 B4 | A2 G2 =E2 F2- | F2 F2 (B,3 C | D4) D2 D2 | %8
w: Pre-|* ca-|tus est Mo-|* y- ses in con-|spe- ctu|Do- mi- ni De-|* i su- *|* i, et|
 G4 E2 C2 | _A8 | G8 || C8 | D2 F4 F2 | G4 z2 _A2 | G2 F2 G2 E2 | E4 D2 F2- | F2 G2 G4 | %17
w: di- xit, et|di-|xit:|'Qua-|re, Do- mi-|ne, i-|ra- sce- ris in|po- pu- lo|_ tu- o?|
 z2 (G4 FE | F4) G4- | G4 z2 G2- | G2 F2 E3 E | E2 (E4 DC | D4) D4 | z2 =E2 E4 | F2 F3 F D2 | %25
w: Par- * *|* ce|_ i-|* rae a- ni-|mae tu- * *|* ae:|me- men-|to A- bra- ham,|
 D2 =E2 F2 F2 | D3 =E F G2 F | G8 | z2 _A2 A2 G2 | _A2 F2 E4 | (D4 EFGA | B3 A G4) | F4 _A2 A2 | %33
w: I- sa- ac et|Ia- * * * *|cob,|qui- bus iu-|ra- sti da-|re _ _ _ _|_ _ _|ter- ram flu-|
 _A4 G4 | G4 G4 | ^F8 | G8 G4 | B8 B4 | _A8 F4 | G4 G4 F4 | =E4 z4 | z2 F2 G2 _A2- | A2 G2 G4 | %43
w: en- tem|lac et|mel.'|Et pla-|ca- tus|fa- ctus|est Do- mi-|nus|de ma- li-|* gni- ta-|
 F4 z2 C2 | D2 E4 D2- | D2 (C3 =B,/A,/ B,2) | C4 F4 | G4 A4 | B2 G2 F4- | F2 B2 A2 G2 | FEDC D4 | %51
w: te, de|ma- li- gni-|* ta- * * *|te, quam|di- xit|fa- ce- re|_ po- pu- lo|su- * * * *|
 =B,8 |] %52
w: o.|
V:3
 G8 | B4 c3 d | e2 e2 d4 | =e3 e f2 f2 | g2 g4 g2 | d3 d c3 B | AG F2 G4 | A4 =B4 | c4 z2 F2 | c8 | %10
w: Pre-|ca- * *|* tus est|Mo- y- ses in|con- spe- ctu|Do- mi- ni _|_ _ _ De-|i su-|i et|di-|
 c8 || A8 | B2 d4 c2 | d4 e4 | d2 c2 d2 c2 | c2 BA B2 c2 | d4 e4 | d4 c4 | (c3 d e2 dc | %19
w: xit:|'Qua-|re, Do- mi-|ne, i-|ra- sce- ris in|po- * * * pu-|lo tu-|* o?|Par- * * * *|
 d2) d2 G3 A | B2 A2 c4 | c2 c2 c4 | =B8 | z2 c2 G2 G2 | B3 B A2 B2 | G2 c2 d2 B2- | BA G2 d4 | %27
w: * ce i- *|* rae a-|ni- mae tu-|ae:|me- men- to|A- bra- ham, I-|sa- ac et Ia-|* * * cob,|
 z2 e2 e2 d2 | e4 f2 d2 | f2 c2 cG c2- | c2 =B2 c2 c2 | f4 B2 e2- | ed d2 e4 | f4 e4 | d8 | d8 | %36
w: qui- bus iu-|ra- sti, qui-|bus iu- ra- * *|* sti da- re|ter- ram flu-|* * * en-|tem lac|et|mel.'|
 d8 e4 | f8 g4 | f8 c4 | d4 e4 c4 | c2 c2 d2 e2- | e2 d2 ed f2 | c2 c2 d2 e2- | e2 d2 f4 | g4 f4- | %45
w: Et pla-|ca- tus|fa- ctus|est Do- mi-|nus de ma- li-|* gni- ta- * *|te, de ma- li-|* gni- ta-|* te,|
 f4 d4 | e2 e2 d2 c2 | d4 f3 f | gfed cBAG | A2 f3 e d2- | dc B2 A4 | G8 |] %52
w: _ quam|di- xit fa- ce-|re po- pu-|lo _ _ _ _ _ _ _|_ su- * *|* * * o.|_|
V:4
 z4 G,4- | G,4 F,3 E,/D,/ | C,2 C,2 G,4 | C3 C F,2 B,2 | G,2 E,4 G,2 | ^F,2 G,2 C,2 =F,2- | %6
w: Pre-|* ca- * *|* tus est|Mo- y- ses in|con- spe- ctu|Do- mi- ni De-|
 F,2 D,2 (E,4 | D,4) G,4 | z2 C,2 _A,3 G, | F,8 | C,8 || F,8 | B,,2 B,4 A,2 | G,4 C4 | %14
w: * i su-|* i,|et di- *||xit:|'Qua-|re, Do- mi-|ne, i-|
 B,2 _A,2 G,2 C,2 | (C,D,E,F, G,2) F,2 | (B,A,G,F, E,2) C,2 | G,4 _A,4- | A,4 G,4- | G,4 E,4 | %20
w: ra- sce- ris in|po- * * * * pu-|lo _ _ _ _ tu-|o? Par-|* ce|_ i-|
 D,4 C,4 | C,2 C,2 _A,4 | G,8 | z2 C,2 C,4 | B,,4 z4 | z8 | z8 | z2 C2 C2 =B,2 | CB,_A,G, F,2 G,2 | %29
w: rae a-|ni- mae tu-|ae:|me- men-|to,|||qui- bus iu-|ra- * * * * sti|
 F,2 F,2 (C,4 | G,4) C,4 | B,,4 E,4 | B,4 _A,3 G, | F,4 C4 | G,8 | D,8 | G,8 C4 | B,8 E,4 | %38
w: da- re ter-|* ram|flu- en-|tem lac _|_ _|et|mel.'|Et pla-|ca- tus|
 F,8 _A,4 | G,4 E,4 F,4 | C,4 G,4 | A,2 B,2 G,2 F,2- | F,2 C,2 G,4 | A,2 B,4 A,2 | %44
w: fa- ctus|est Do- mi-|nus de|ma- li- gni- ta-|* te, de|ma- li- gni-|
 (G,2 F,E, B,3 A,/G,/ | F,4 G,4) | C,2 C2 B,2 _A,2 | G,3 G, F,4 | E,4 F,3 E, | D,C, B,,2 F,2 G,2 | %50
w: ta- * * * * *||te, quam di- xit|fa- ce- re|_ po- *|* * * pu- lo|
 D,8 | G,8 |] %52
w: su-|o.|

